X: 10134
T: WALTZ
C: Mozart
%R: waltz
B: W. Hamilton "Universal Tune-Book" Vol. 1 Glasgow 1844 p.13 #4
S: http://imslp.org/wiki/Hamilton's_Universal_Tune-Book_(Various)
Z: 2016 John Chambers <jc:trillian.mit.edu>
M: 3/8
L: 1/16
K: F
% - - - - - - - - - - - - - - - - - - - - - - - - -
(fc) |\
A2A2 (cA) | F2F2A2 | (Gc)(=Bc)(_Bc) | A2F2 (fc) |\
A2A2 (cA) | F2F2A2 | G2{=B}c2{_B}c2 | F4 :: GE |\
C2C2 AF | C2C2 EG |
(FC)(GC)(AC) | Gcdefg |\
(af c2)c2 | (fc A2)A2 | (Gc)(=Bc)(_Bc) | F4 :: (AG) |\
F2F2 (AG) | F2F2 (AG) | F2E2F2 | G4 (BA) |\
G2G2 (BA) |
G2G2 (BA) | A2(AB)(GA) | F4 :: (EF) |\
G2G2 (BA) | A2G2 (GA) | B2B2 (dB) | B2A2 (AB) |\
c2c2 (d=B) | c2c2 (d=B) | (Af)(cA)(_BG) | F4 :|
% - - - - - - - - - - - - - - - - - - - - - - - - -

%%sep 1 1 500
%%sep 1 1 500

